KINDER
CUT[MOHKUEHCHEN MOH WOVON BIST DU SO ROH]
REG[Europa, Mitteleuropa, Deutschland, Halle]
KEY[K0653  16  F 2/4]
MEL[  5__3_2_  1__0_
    -5_  5_5_3_2_  1__0_
    -5_  1_3_3_5_  543_2_
    1_  1_3_3_5_  553_2_
    32  1_1_2_2_  1__0_
    5_  5_.43_1_  4_6_5_0
    3  3_2_331_  2__1_0_ //] >>
FCT[Kinder -, Tier - Lied]
